optimized/24/solid/chart-bar.svg

<svg xmlns="http://www.w3.org/2000/svg" viewBox="0 0 24 24">
  <path d="M18.375 2.25C17.3395 2.25 16.5 3.08947 16.5 4.125V19.875C16.5 20.9105 17.3395 21.75 18.375 21.75H19.125C20.1605 21.75 21 20.9105 21 19.875V4.125C21 3.08947 20.1605 2.25 19.125 2.25H18.375Z"/>
  <path d="M9.75 8.625C9.75 7.58947 10.5895 6.75 11.625 6.75H12.375C13.4105 6.75 14.25 7.58947 14.25 8.625V19.875C14.25 20.9105 13.4105 21.75 12.375 21.75H11.625C10.5895 21.75 9.75 20.9105 9.75 19.875V8.625Z"/>
  <path d="M3 13.125C3 12.0895 3.83947 11.25 4.875 11.25H5.625C6.66053 11.25 7.5 12.0895 7.5 13.125V19.875C7.5 20.9105 6.66053 21.75 5.625 21.75H4.875C3.83947 21.75 3 20.9105 3 19.875V13.125Z"/>
</svg>

<svg xmlns="http://www.w3.org/2000/svg" viewBox="0 0 24 24" fill="currentColor" aria-hidden="true">
  <path d="M18.375 2.25c-1.035 0-1.875.84-1.875 1.875v15.75c0 1.035.84 1.875 1.875 1.875h.75c1.035 0 1.875-.84 1.875-1.875V4.125c0-1.036-.84-1.875-1.875-1.875h-.75zM9.75 8.625c0-1.036.84-1.875 1.875-1.875h.75c1.036 0 1.875.84 1.875 1.875v11.25c0 1.035-.84 1.875-1.875 1.875h-.75a1.875 1.875 0 01-1.875-1.875V8.625zM3 13.125c0-1.036.84-1.875 1.875-1.875h.75c1.036 0 1.875.84 1.875 1.875v6.75c0 1.035-.84 1.875-1.875 1.875h-.75A1.875 1.875 0 013 19.875v-6.75z"/>
</svg>
